X:1
T:Silent Night
T:Silent Night
T:Gage Shackelford
C:Gage Shackelford
%%score 1 2 { 3 | 4 }
L:1/8
M:3/4
K:F#
V:1 treble nm="Voice"
V:2 treble nm="Voice" snm="Vo."
V:3 treble nm="Piano"
V:4 bass 
V:1
 G3 A G2 | F6 | G3 A G2 | F6 | B4 B2 | B6 | A4 A2 | F2 E2 D2 | G4 G2 | G2 B2 B2 | F3 D F2 | F6 | %12
 G4 G2 | G2 B2 B2 | F3 D F2 | A6 | C4 C2 | C2 D2 E2 | F6 | E6 | D6 | !fermata!=D6 | C6- | C6 | %24
 C4 C2 | B,2 B,2 D2 | D3 =E D2 | C6 |] %28
V:2
 c4 c2 | A6 | c4 c2 | A6 | d4 d2 | d2 c4 | c4 c2 | c6 | B4 B2 | B2 d2 c2 | B3 c B2 | A6 | B4 B2 | %13
 B2 d2 c2 | B3 c B2 | c6 | G4 G2 | B2 A2 G2 | F6 | G6 | A6 | !fermata!B6 | c6- | c6 | G2 F2 E2 | %25
 D2 C2 B,2 | B,6 | A,6 |] %28
V:3
 [FGc]6 | [FAc]6 | [FGc]6 | [FAc]6 | [Bdf]6 | [Bdf]6 | [FGc]6 | [FAc]6 | [GBd]6 | [GBd]6 | [Bdf]6 | %11
 [FAc]6 | [GBd]6 | [GBd]6 | [Bdf]6 | [FAc]6 | [CEG]6 | [CEGB]6 | [Cc]6 | [Cc]6 | [Cc]6 | %21
 !fermata![Cc]6 | [Bdf]6- | [Bdf]6 | [CEG]6 | [CEGB]6 | [B,DF]6 | [F,A,C]6 |] %28
V:4
 [C,F,]6 | [F,C]6 | [C,F,]6 | [F,C]6 | [B,,D,]6 | [B,,D,]6 | [A,,C,]6 | [A,,C,]6 | [D,G,]6 | %9
 [D,G,]6 | [B,,D,]6 | [A,,C,]6 | [D,G,]6 | [D,G,]6 | [B,,D,]6 | [C,F,]6 | [C,E,]6 | [C,E,B,]6 | %18
 [C,C]6 | [C,C]6 | [C,C]6 | [C,C]6 | [B,,F,]6 | [C,G,]6 | [C,G,]6 | [C,G,]6 | [B,,D,]6 | %27
 [F,,A,,]6 |] %28

